communes/3105.svg

<?xml version="1.0" encoding="UTF-8" standalone="no"?>
<!-- Created with Inkscape (http://www.inkscape.org/) -->

<svg
   xmlns:dc="http://purl.org/dc/elements/1.1/"
   xmlns:cc="http://creativecommons.org/ns#"
   xmlns:rdf="http://www.w3.org/1999/02/22-rdf-syntax-ns#"
   xmlns:svg="http://www.w3.org/2000/svg"
   xmlns="http://www.w3.org/2000/svg"
   xmlns:sodipodi="http://sodipodi.sourceforge.net/DTD/sodipodi-0.dtd"
   xmlns:inkscape="http://www.inkscape.org/namespaces/inkscape"
   version="1.0"
   width="208.86046"
   height="244.65999"
   id="svg2780"
   inkscape:version="0.92.4 (5da689c313, 2019-01-14)"
   sodipodi:docname="Schwende_AI-blazon.svg">
  <metadata
     id="metadata27">
    <rdf:RDF>
      <cc:Work
         rdf:about="">
        <dc:format>image/svg+xml</dc:format>
        <dc:type
           rdf:resource="http://purl.org/dc/dcmitype/StillImage" />
        <dc:title></dc:title>
      </cc:Work>
    </rdf:RDF>
  </metadata>
  <sodipodi:namedview
     pagecolor="#ffffff"
     bordercolor="#666666"
     borderopacity="1"
     objecttolerance="10"
     gridtolerance="10"
     guidetolerance="10"
     inkscape:pageopacity="0"
     inkscape:pageshadow="2"
     inkscape:window-width="3236"
     inkscape:window-height="1417"
     id="namedview25"
     showgrid="false"
     inkscape:zoom="2.0000001"
     inkscape:cx="65.618041"
     inkscape:cy="99.748695"
     inkscape:window-x="-8"
     inkscape:window-y="-8"
     inkscape:window-maximized="1"
     inkscape:current-layer="svg2780"
     inkscape:measure-start="104.255,149.787"
     inkscape:measure-end="104.255,126.383"
     showguides="true"
     inkscape:object-paths="true"
     inkscape:snap-intersection-paths="true"
     inkscape:snap-global="true" />
  <defs
     id="defs2782" />
  <path
     inkscape:connector-curvature="0"
     style="fill:#1b63c6;fill-opacity:1;fill-rule:evenodd;stroke:#000000;stroke-width:1.99999988;stroke-linecap:butt;stroke-miterlimit:4;stroke-dashoffset:0;stroke-opacity:1"
     id="path4212"
     d="m 1,1 3.761095,158.00304 c 2.686489,112.85918 196.651755,112.85918 199.338255,0 L 207.86045,1 Z" />
  <g
     id="g3217">
    <path
       sodipodi:nodetypes="cccccccc"
       inkscape:connector-curvature="0"
       d="M 156.75,30.757757 V 162.72399 c -0.10401,8.85253 1.77965,19.84132 11.71819,35.44373 -42.69196,0 -85.38393,0 -128.075895,0 9.93854,-15.60241 11.8222,-26.5912 11.71819,-35.44373 V 30.757753 L 104.43024,7.0349962 Z"
       style="opacity:1;fill:#ffffff;fill-opacity:1;stroke:#000000;stroke-width:1;stroke-miterlimit:4;stroke-dasharray:none;stroke-dashoffset:4.57999992;stroke-opacity:1"
       id="path2529-4" />
    <rect
       y="38.097492"
       x="108"
       height="15.6875"
       width="12.375"
       id="rect2501"
       style="opacity:1;fill:#000000;fill-opacity:1;stroke:#000000;stroke-width:1;stroke-miterlimit:4;stroke-dasharray:none;stroke-dashoffset:4.57999992;stroke-opacity:1" />
    <rect
       y="24.222494"
       x="102.61048"
       height="4.875"
       width="3.6395147"
       id="rect2503"
       style="opacity:1;fill:#000000;fill-opacity:1;stroke:#000000;stroke-width:1;stroke-miterlimit:4;stroke-dasharray:none;stroke-dashoffset:4.57999992;stroke-opacity:1" />
    <rect
       y="80.347496"
       x="100.61048"
       height="9.25"
       width="7.6395144"
       id="rect2509"
       style="opacity:1;fill:#000000;fill-opacity:1;stroke:#000000;stroke-width:1;stroke-miterlimit:4;stroke-dasharray:none;stroke-dashoffset:4.57999992;stroke-opacity:1" />
    <path
       sodipodi:nodetypes="sccscs"
       inkscape:connector-curvature="0"
       d="m 111.875,121.53499 v 19.8125 c -4.96317,0 -9.92635,0 -14.88952,0 v -19.8125 c 0,-3.04521 4.625,-5.1875 7.44476,-5.1875 2.81976,0 7.44476,2.14229 7.44476,5.1875 z"
       style="opacity:1;fill:#000000;fill-opacity:1;stroke:#000000;stroke-width:1;stroke-miterlimit:4;stroke-dasharray:none;stroke-dashoffset:4.57999992;stroke-opacity:1"
       id="path2511-0" />
    <path
       sodipodi:nodetypes="cccccccccccccccccccccccccccccccccccccccccccccccccccccccccc"
       inkscape:connector-curvature="0"
       d="M 101.61048,20.367102 V 10.938525 L 90.750001,15.86287 v 10.707109 h -5.63952 v -8.150045 l -10.860476,4.924345 v 10.707108 h -5.63952 v -8.150044 l -10.86048,4.924344 v 10.707109 h -5.63952 v -8.150045 l -15.528054,7.040708 v 14.486529 h 15.528054 v 16.0625 h -9.812504 l 9.812504,9.812496 v 5.312503 L 36.985481,70.972483 h -4.4375 V 59.034988 h 1.6875 V 41.487609 l -6.84872,3.105338 V 41.967948 L 104.43024,7.0349961 181.47372,41.967953 v 2.624999 L 174.625,41.487614 v 17.547379 h 1.6875 V 70.972488 H 171.875 L 156.75,86.097492 v -5.312503 l 9.8125,-9.812496 H 156.75 v -16.0625 h 15.52805 V 40.423464 L 156.75,33.382756 v 8.150045 h -5.63952 V 30.825692 L 140.25,25.901348 v 8.150044 h -5.63952 V 23.344284 L 123.75,18.419939 v 8.150045 h -5.63952 V 15.862875 L 107.25,10.93853 v 9.428577 c -1.87984,-2e-6 -3.75968,-3e-6 -5.63952,-5e-6 z"
       style="opacity:1;fill:#cc2918;fill-opacity:1;stroke:#000000;stroke-width:1;stroke-miterlimit:4;stroke-dasharray:none;stroke-dashoffset:4.57999992;stroke-opacity:1"
       id="path2495-4" />
    <rect
       transform="scale(-1,1)"
       y="38.097492"
       x="-100.86048"
       height="15.6875"
       width="12.375"
       id="rect2501-8"
       style="opacity:1;fill:#000000;fill-opacity:1;stroke:#000000;stroke-width:1;stroke-miterlimit:4;stroke-dasharray:none;stroke-dashoffset:4.57999992;stroke-opacity:1" />
  </g>
  <g
     id="g3242">
    <path
       sodipodi:nodetypes="ccccccc"
       inkscape:connector-curvature="0"
       d="m 191.79953,201.34769 c -11.31994,-31.61052 -44.47259,-22.59367 -58.50991,-6.45034 1.32086,-29.56224 -17.0369,-36.23736 -28.85938,-36.23736 -11.82248,0 -30.18024,6.67512 -28.85938,36.23736 -14.037318,-16.14333 -47.189968,-25.16018 -58.509908,6.45034 17.30378,25.30812 44.66375,41.08 87.369288,42.29973 42.70554,-1.21973 70.06551,-16.99161 87.36929,-42.29973 z"
       style="opacity:1;fill:#009645;fill-opacity:1;stroke:#000000;stroke-width:1;stroke-miterlimit:4;stroke-dasharray:none;stroke-dashoffset:4.57999992;stroke-opacity:1"
       id="path3140-6" />
    <path
       sodipodi:nodetypes="ccscccscccscc"
       inkscape:connector-curvature="0"
       d="m 155.05184,233.12264 c -3.0899,0.75333 -6.31997,1.27287 -9.81689,1.32994 -14.16697,-0.006 -26.63133,-8.47818 -40.79872,-8.24697 -14.08456,0.22986 -23.863841,8.02901 -38.010062,8.25987 -5.140171,-0.002 -10.056205,-1.11888 -14.897126,-2.53012 -16.857479,-8.31802 -26.126046,-19.68902 -31.718018,-26.29102 1.959486,-0.33712 3.983374,-0.55054 6.102021,-0.58548 13.881789,-0.22891 26.346152,8.24358 40.513123,8.24928 14.146221,-0.23086 23.925502,-8.03001 38.010062,-8.25987 14.16739,-0.23121 26.63175,8.24127 40.79872,8.24697 14.14623,-0.23087 23.92551,-8.03005 37.72446,-8.25757 2.07477,-0.0342 4.11787,0.12595 6.13973,0.42317 -7.25986,9.65141 -17.09018,19.03202 -34.0473,27.6618 z"
       style="fill:#ffffff;fill-opacity:1;fill-rule:evenodd;stroke:#000000;stroke-width:1px;stroke-linecap:butt;stroke-linejoin:miter;stroke-opacity:1"
       id="path10251-9-4-4" />
  </g>
  <path
     inkscape:connector-curvature="0"
     style="fill:none;fill-opacity:1;fill-rule:evenodd;stroke:#000000;stroke-width:1.99999988;stroke-linecap:butt;stroke-miterlimit:4;stroke-dashoffset:0;stroke-opacity:1"
     id="path4212-7"
     d="M 1,0.99999834 4.761095,159.00304 c 2.686489,112.85918 196.651755,112.85918 199.338255,0 l 3.7611,-158.00304166 z" />
</svg>

<?xml version="1.0" encoding="UTF-8"?>
<svg version="1.0" viewBox="0 0 208.86 244.66" xmlns="http://www.w3.org/2000/svg" xmlns:cc="http://creativecommons.org/ns#" xmlns:dc="http://purl.org/dc/elements/1.1/" xmlns:rdf="http://www.w3.org/1999/02/22-rdf-syntax-ns#">
<metadata>
<rdf:RDF>
<cc:Work rdf:about="">
<dc:format>image/svg+xml</dc:format>
<dc:type rdf:resource="http://purl.org/dc/dcmitype/StillImage"/>
<dc:title/>
</cc:Work>
</rdf:RDF>
</metadata>
<path d="m1 1 3.7611 158c2.6865 112.86 196.65 112.86 199.34 0l3.7611-158z" fill="#1b63c6" fill-rule="evenodd" stroke="#000" stroke-width="2"/>
<g stroke="#000" stroke-dashoffset="4.58">
<path d="m156.75 30.758v131.97c-0.10401 8.8525 1.7796 19.841 11.718 35.444h-128.08c9.9385-15.602 11.822-26.591 11.718-35.444v-131.97l52.32-23.723z" fill="#fff"/>
<rect x="108" y="38.097" width="12.375" height="15.688"/>
<rect x="102.61" y="24.222" width="3.6395" height="4.875"/>
<rect x="100.61" y="80.347" width="7.6395" height="9.25"/>
<path d="m111.88 121.53v19.812h-14.89v-19.812c0-3.0452 4.625-5.1875 7.4448-5.1875s7.4448 2.1423 7.4448 5.1875z"/>
<path d="m101.61 20.367v-9.4286l-10.86 4.9243v10.707h-5.6395v-8.15l-10.86 4.9243v10.707h-5.6395v-8.15l-10.86 4.9243v10.707h-5.6395v-8.15l-15.528 7.0407v14.487h15.528v16.062h-9.8125l9.8125 9.8125v5.3125l-15.125-15.125h-4.4375v-11.937h1.6875v-17.547l-6.8487 3.1053v-2.625l77.043-34.933 77.043 34.933v2.625l-6.8487-3.1053v17.547h1.6875v11.937h-4.4375l-15.125 15.125v-5.3125l9.8125-9.8125h-9.8125v-16.062h15.528v-14.487l-15.528-7.0407v8.15h-5.6395v-10.707l-10.86-4.9243v8.15h-5.6395v-10.707l-10.86-4.9243v8.15h-5.6395v-10.707l-10.86-4.9243v9.4286c-1.8798-2e-6 -3.7597-3e-6 -5.6395-5e-6z" fill="#cc2918"/>
<rect transform="scale(-1,1)" x="-100.86" y="38.097" width="12.375" height="15.688"/>
</g>
<g stroke="#000">
<path d="m191.8 201.35c-11.32-31.611-44.473-22.594-58.51-6.4503 1.3209-29.562-17.037-36.237-28.859-36.237s-30.18 6.6751-28.859 36.237c-14.037-16.143-47.19-25.16-58.51 6.4503 17.304 25.308 44.664 41.08 87.369 42.3 42.706-1.2197 70.066-16.992 87.369-42.3z" fill="#009645" stroke-dashoffset="4.58"/>
<path d="m155.05 233.12c-3.0899 0.75333-6.32 1.2729-9.8169 1.3299-14.167-6e-3 -26.631-8.4782-40.799-8.247-14.085 0.22986-23.864 8.029-38.01 8.2599-5.1402-2e-3 -10.056-1.1189-14.897-2.5301-16.857-8.318-26.126-19.689-31.718-26.291 1.9595-0.33712 3.9834-0.55054 6.102-0.58548 13.882-0.22891 26.346 8.2436 40.513 8.2493 14.146-0.23086 23.926-8.03 38.01-8.2599 14.167-0.23121 26.632 8.2413 40.799 8.247 14.146-0.23087 23.926-8.03 37.724-8.2576 2.0748-0.0342 4.1179 0.12595 6.1397 0.42317-7.2599 9.6514-17.09 19.032-34.047 27.662z" fill="#fff" fill-rule="evenodd" stroke-width="1px"/>
</g>
<path d="m1 1 3.7611 158c2.6865 112.86 196.65 112.86 199.34 0l3.7611-158z" fill="none" stroke="#000" stroke-width="2"/>
</svg>
